assets/Soft ice cream/Flat/soft_ice_cream_flat.svg

<svg width="32" height="32" viewBox="0 0 32 32" fill="none" xmlns="http://www.w3.org/2000/svg">
<path d="M10.9209 22.9067L11.7409 29.4567C11.7909 29.8867 12.1609 30.2067 12.5909 30.2067H20.2009C20.6309 30.2067 20.9909 29.8867 21.0509 29.4567L21.8709 22.9067H10.9209Z" fill="#D3883E"/>
<path d="M18.6854 22.9067L16.4682 25.1239L14.251 22.9067H12.8464L11.1351 24.6181L11.4651 27.254L12.8966 28.6855L11.8317 29.7504C11.9761 30.0245 12.2664 30.2067 12.5909 30.2067H12.6695L13.5387 29.3376L14.4079 30.2067H15.7025L14.2109 28.6855L16.4782 26.4181L18.7456 28.6855L17.2243 30.2067H18.5185L19.3876 29.3376L20.2551 30.205C20.5925 30.1837 20.8794 29.9651 20.9994 29.6552L20.0297 28.6855L21.3074 27.4078L21.4926 25.9284L19.3776 28.0434L17.1103 25.776L19.3776 23.5087L21.5265 25.6576L21.6705 24.5072L20.0899 22.9067H18.6854ZM11.2914 25.766L13.5588 23.4987L15.8261 25.766L13.5588 28.0334L11.2914 25.766Z" fill="#E19747"/>
<path d="M22.4409 22.9068H10.4709C10.0009 22.9068 9.61087 22.5268 9.61087 22.0468V20.5568L23.2909 19.5068V22.0468C23.3009 22.5268 22.9109 22.9068 22.4409 22.9068Z" fill="#F3AD61"/>
<path d="M19.9509 6.2868C21.0609 6.1968 21.9709 7.0268 21.9709 8.1368C21.9709 8.70445 21.7371 9.23871 21.362 9.64063L21.5208 9.62674C22.8808 9.50674 24.0808 10.5167 24.2008 11.8767C24.258 12.524 24.0591 13.1351 23.6884 13.6107C24.9147 13.9084 25.871 14.9603 25.9909 16.2867C26.1309 17.9467 24.9009 19.4067 23.2409 19.5567L20.9809 19.7567C20.8955 19.7638 20.4423 19.8038 19.8815 19.8533L19.8774 19.8537L19.876 19.8538C18.8601 19.9434 17.4945 20.0639 17.3209 20.0767L14.488 20.3234C14.4565 20.3546 14.4267 20.392 14.4009 20.4369C14.2809 20.6369 14.2909 21.0369 14.2909 21.0369C14.2909 21.5969 13.8309 22.0569 13.2709 22.0569C12.7109 22.0569 12.2509 21.6069 12.2509 21.0369C12.2509 21.0369 12.2709 20.7169 12.1609 20.5869C12.1434 20.5661 12.1244 20.5475 12.1041 20.5309L9.28086 20.7767C7.62086 20.9167 6.16086 19.6867 6.01086 18.0267C5.87833 16.4553 6.97351 15.0631 8.49897 14.7918C8.12815 14.4 7.88187 13.885 7.83084 13.3067C7.71084 11.9467 8.72084 10.7467 10.0808 10.6267L10.5227 10.5881C10.1459 10.2526 9.91087 9.76088 9.91087 9.1968C9.85087 8.4168 10.2309 7.6968 10.8409 7.3068C10.9709 7.2268 11.1109 7.1568 11.2609 7.1068C11.2609 7.1068 14.3309 5.9568 15.2809 5.2568C15.7409 4.9168 15.8809 4.3768 15.9409 4.0468C16.0009 3.7468 16.1509 3.0768 16.9009 3.0068C17.7909 2.9268 18.0509 3.5668 18.1109 4.1968V6.1468C18.1109 6.3168 18.2609 6.4468 18.4309 6.4368L19.9509 6.2868Z" fill="#FFDEA7"/>
</svg>

<svg xmlns="http://www.w3.org/2000/svg" width="32" height="32" fill="none"><path fill="#D3883E" d="m10.92 22.907.82 6.55c.05.43.42.75.85.75h7.61c.43 0 .79-.32.85-.75l.82-6.55H10.92Z"/><path fill="#E19747" d="m18.685 22.907-2.217 2.217-2.217-2.217h-1.405l-1.71 1.711.33 2.636 1.43 1.431-1.064 1.065a.86.86 0 0 0 .759.457h.079l.869-.87.869.87h1.295l-1.492-1.521 2.267-2.268 2.268 2.268-1.522 1.52h1.294l.87-.868.867.867a.858.858 0 0 0 .744-.55l-.97-.97 1.278-1.277.186-1.48-2.115 2.115-2.268-2.267 2.268-2.267 2.148 2.149.145-1.15-1.581-1.601h-1.405Zm-7.394 2.859 2.268-2.267 2.267 2.267-2.267 2.267-2.268-2.267Z"/><path fill="#F3AD61" d="M22.44 22.907H10.47a.86.86 0 0 1-.86-.86v-1.49l13.68-1.05v2.54c.01.48-.38.86-.85.86Z"/><path fill="#FFDEA7" d="M19.95 6.287c1.11-.09 2.02.74 2.02 1.85 0 .567-.233 1.102-.608 1.504l.159-.014a2.476 2.476 0 0 1 2.167 3.984 3.034 3.034 0 0 1 2.303 2.676 3.03 3.03 0 0 1-2.75 3.27l-2.26.2a580.3 580.3 0 0 0-1.1.096h-.005c-1.016.09-2.382.21-2.555.224l-2.833.246a.532.532 0 0 0-.087.114c-.12.2-.11.6-.11.6 0 .56-.46 1.02-1.02 1.02s-1.02-.45-1.02-1.02c0 0 .02-.32-.09-.45a.429.429 0 0 0-.057-.056l-2.823.246a3.03 3.03 0 0 1-3.27-2.75 3.03 3.03 0 0 1 2.488-3.235 2.476 2.476 0 0 1 1.582-4.165l.442-.039a1.843 1.843 0 0 1-.612-1.391c-.06-.78.32-1.5.93-1.89.13-.08.27-.15.42-.2 0 0 3.07-1.15 4.02-1.85.46-.34.6-.88.66-1.21.06-.3.21-.97.96-1.04.89-.08 1.15.56 1.21 1.19v1.95c0 .17.15.3.32.29l1.52-.15Z"/></svg>
